X:156
T:Bells of Osley, The
M:2/4
L:1/8
B:Thompson's Compleat Collection of 200 Favourite Country Dances, vol. 3 (London, 1773)
Z:Transcribed and edited by Flynn Titford-Mock, 2007
Z:abc's:AK/Fiddler's Companion
K:A
a | gfed | cBAd | cABG | A2 Ea | gfed | cBAd | cABG | A3 :|
|: E | AcBd | cedf | ecGA | BGEE | AcBd | cfed | cBAG | A3 :|

